public/images/poses-sm/Garland.svg

<svg width="800" height="900" fill="none" xmlns="http://www.w3.org/2000/svg"><path d="M493.677 629.043c1.769-33.577-22.692-88.544-22.692-88.544-58.36 17.533-137.3 0-137.3 0s-23.394 79.07-21.088 95.487" fill="#fff"/><path d="M493.677 629.043c1.769-33.577-22.692-88.544-22.692-88.544-58.36 17.533-137.3 0-137.3 0s-23.394 79.07-21.088 95.487" stroke="#000" stroke-width="5" stroke-miterlimit="10"/><path d="M493.677 629.043c1.769-33.577-22.692-88.544-22.692-88.544-58.36 17.533-137.3 0-137.3 0s-23.394 79.07-21.088 95.487" stroke="#000" stroke-width="5" stroke-miterlimit="10"/><path d="M472.334 553.585c-45.234 12.382-91.654 12.947-139.693-2.522 6.468-56.337-1.735-110.532-1.735-110.532 12.595-36.688 7.828-67.448 7.828-67.448s13.004-4.734 29.75-17.814c16.747-13.117 12.356-57.292 12.356-57.292s1.089.166 21.513.166c20.423 0 21.274-.166 21.274-.166s-4.188 44.175 12.559 57.292c16.782 13.08 31.894 17.814 31.894 17.814s-6.874 30.76 5.684 67.448c-.001-.001-8.441 55.827-1.43 113.054Z" fill="#fff" stroke="#000" stroke-width="5" stroke-miterlimit="10"/><path d="M472.334 553.585c-45.234 12.382-91.654 12.947-139.693-2.522 6.468-56.337-1.735-110.532-1.735-110.532 12.595-36.688 7.828-67.448 7.828-67.448s13.004-4.734 29.75-17.814c16.747-13.117 12.356-57.292 12.356-57.292s1.089.166 21.513.166c20.423 0 21.274-.166 21.274-.166s-4.188 44.175 12.559 57.292c16.782 13.08 31.894 17.814 31.894 17.814s-6.874 30.76 5.684 67.448c-.001-.001-8.441 55.827-1.43 113.054Z" stroke="#000" stroke-width="5" stroke-miterlimit="10"/><path d="M382.981 594.494S270.655 458.241 257.04 454.834c-13.616-3.408-37.442 0-40.847 17.032-2.991 14.974 12.432 114.185 18.515 149.525.891 5.162 2.175 10.225 3.611 15.255.851 2.979 1.701 7.238 1.701 12.348 0 10.219 0 17.031 3.404 40.876s-3.404 23.845-10.211 27.251c-6.808 3.406-13.616 6.813-3.404 13.624 0 0 27.231 3.407 40.846-3.406 13.615-6.814-3.403-37.471 0-47.689 3.404-10.218 13.615-20.437 6.808-37.469 0 0-6.808-6.814-10.211-13.626-3.404-6.814 3.403-51.094 0-71.533l-3.404-20.438s20.423 102.19 85.096 122.628c34.375 6.539 68.442 7.093 102.115 0 64.672-20.436 85.094-122.625 85.094-122.625l-3.403 20.438c-3.405 20.439 3.403 64.72 0 71.533-3.405 6.814-10.212 13.626-10.212 13.626-6.807 17.032 3.405 27.25 6.809 37.469 3.404 10.218-13.615 40.877 0 47.689 13.614 6.812 40.846 3.406 40.846 3.406 10.212-6.813 3.405-10.218-3.404-13.624-6.808-3.407-13.615-3.407-10.211-27.251 3.405-23.844 3.405-30.656 3.405-40.876 0-5.11.85-9.368 1.702-12.348 1.435-5.03 2.721-10.093 3.609-15.255 6.089-35.341 21.506-134.551 18.514-149.526-3.403-17.031-27.23-20.439-40.847-17.031-13.614 3.407-125.941 139.66-125.941 139.66" fill="#fff"/><path d="M382.981 594.494S270.655 458.241 257.04 454.834c-13.616-3.408-37.442 0-40.847 17.032-2.991 14.974 12.432 114.185 18.515 149.525.891 5.162 2.175 10.225 3.611 15.255.851 2.979 1.701 7.238 1.701 12.348 0 10.219 0 17.031 3.404 40.876s-3.404 23.845-10.211 27.251c-6.808 3.406-13.616 6.813-3.404 13.624 0 0 27.231 3.407 40.846-3.406 13.615-6.814-3.403-37.471 0-47.689 3.404-10.218 13.615-20.437 6.808-37.469 0 0-6.808-6.814-10.211-13.626-3.404-6.814 3.403-51.094 0-71.533l-3.404-20.438s20.423 102.19 85.096 122.628c34.375 6.539 68.442 7.093 102.115 0 64.672-20.436 85.094-122.625 85.094-122.625l-3.403 20.438c-3.405 20.439 3.403 64.72 0 71.533-3.405 6.814-10.212 13.626-10.212 13.626-6.807 17.032 3.405 27.25 6.809 37.469 3.404 10.218-13.615 40.877 0 47.689 13.614 6.812 40.846 3.406 40.846 3.406 10.212-6.813 3.405-10.218-3.404-13.624-6.808-3.407-13.615-3.407-10.211-27.251 3.405-23.844 3.405-30.656 3.405-40.876 0-5.11.85-9.368 1.702-12.348 1.435-5.03 2.721-10.093 3.609-15.255 6.089-35.341 21.506-134.551 18.514-149.526-3.403-17.031-27.23-20.439-40.847-17.031-13.614 3.407-125.941 139.66-125.941 139.66" stroke="#000" stroke-width="5" stroke-miterlimit="10"/><path d="M382.981 594.494S270.655 458.241 257.04 454.834c-13.616-3.408-37.442 0-40.847 17.032-2.991 14.974 12.432 114.185 18.515 149.525.891 5.162 2.175 10.225 3.611 15.255.851 2.979 1.701 7.238 1.701 12.348 0 10.219 0 17.031 3.404 40.876s-3.404 23.845-10.211 27.251c-6.808 3.406-13.616 6.813-3.404 13.624 0 0 27.231 3.407 40.846-3.406 13.615-6.814-3.403-37.471 0-47.689 3.404-10.218 13.615-20.437 6.808-37.469 0 0-6.808-6.814-10.211-13.626-3.404-6.814 3.403-51.094 0-71.533l-3.404-20.438s20.423 102.19 85.096 122.628c34.375 6.539 68.442 7.093 102.115 0 64.672-20.436 85.094-122.625 85.094-122.625l-3.403 20.438c-3.405 20.439 3.403 64.72 0 71.533-3.405 6.814-10.212 13.626-10.212 13.626-6.807 17.032 3.405 27.25 6.809 37.469 3.404 10.218-13.615 40.877 0 47.689 13.614 6.812 40.846 3.406 40.846 3.406 10.212-6.813 3.405-10.218-3.404-13.624-6.808-3.407-13.615-3.407-10.211-27.251 3.405-23.844 3.405-30.656 3.405-40.876 0-5.11.85-9.368 1.702-12.348 1.435-5.03 2.721-10.093 3.609-15.255 6.089-35.341 21.506-134.551 18.514-149.526-3.403-17.031-27.23-20.439-40.847-17.031-13.614 3.407-125.941 139.66-125.941 139.66" stroke="#000" stroke-width="5" stroke-miterlimit="10"/><path d="M365.059 206.592c-24.557 50.948 14.21 112.139 36.516 112.435 22.306.293 62.675-59.857 39.465-111.434-14.63-32.51-60.501-33.115-75.981-1.001Z" fill="#fff" stroke="#000" stroke-width="5" stroke-miterlimit="10"/><path d="M365.059 206.592c-24.557 50.948 14.21 112.139 36.516 112.435 22.306.293 62.675-59.857 39.465-111.434-14.63-32.51-60.501-33.115-75.981-1.001Z" stroke="#000" stroke-width="5" stroke-miterlimit="10"/><path d="M546.267 267.935c-19.584-10.761-14.616-24.562-31.994-38.361-17.373-13.802-38.899-4.481-47.987-26.775-9.005-22.088-38.343-34.702-63.909-34.394v-.003c-.014 0-.026.003-.042.003-.014 0-.023-.003-.037-.003v.003c-25.565-.31-54.907 12.305-63.909 34.394-9.093 22.294-30.615 12.973-47.989 26.775-17.376 13.799-12.411 27.6-31.992 38.361-19.582 10.765-21.176 9.766-20.409 18.22 1.13 12.461 45.659 7.531 79.054 8.382 6.545.17 30.385 6.8 36.76 8.296 13.044 3.054 29.793 2.621 30.143-2.055.55-7.452-1.835-25.179-6.917-34.251-5.079-9.074-15.573-6.147-15.573-19.46 0-12.421 5.096-7.584 16.814-18.628 10.333-9.74 20.674-21.016 24.056-30.177 3.383 9.161 13.729 20.437 24.058 30.177 11.719 11.044 16.815 6.207 16.815 18.628 0 13.313-10.494 10.386-15.575 19.46-5.08 9.072-7.467 26.799-6.914 34.251.343 4.676 17.098 5.109 30.137 2.055 6.373-1.496 30.216-8.126 36.76-8.296 33.398-.851 77.928 4.079 79.058-8.382.769-8.454-.83-7.455-20.408-18.22Z" fill="#100200" stroke="#000" stroke-width="5" stroke-miterlimit="10"/><path d="M353.926 365.209s18.182 27.39 48.67 27.39c30.492 0 48.675-27.39 48.675-27.39" fill="#fff"/><path d="M353.926 365.209s18.182 27.39 48.67 27.39c30.492 0 48.675-27.39 48.675-27.39" stroke="#000" stroke-width="5" stroke-miterlimit="10"/><path d="M353.926 365.209s18.182 27.39 48.67 27.39c30.492 0 48.675-27.39 48.675-27.39" stroke="#000" stroke-width="5" stroke-miterlimit="10"/><path d="M386.747 522.96c4.737.495 6.665-57.908 9.993-61.314l3.333-3.406s3.332-3.407 3.332 10.218v62.964c0 6.281-5.892 10.805-11.791 9.057 0 0-1.101-.339-1.535-.488-46.026 2.157-89.914 1.725-129.927-3.407-9.994-6.813-13.326-10.218-6.661-40.877 6.661-30.656 49.972-102.189 56.633-112.408 6.662-10.219 28.57-10.219 28.57-10.219 6.665 3.406-3.449 64.771-10.211 68.126-6.758 3.359-40.808 68.126-40.808 68.126s.723 3.409 99.072 13.628Z" fill="#fff" stroke="#000" stroke-width="5" stroke-miterlimit="10"/><path d="M386.747 522.96c4.737.495 6.665-57.908 9.993-61.314l3.333-3.406s3.332-3.407 3.332 10.218v62.964c0 6.281-5.892 10.805-11.791 9.057 0 0-1.101-.339-1.535-.488-46.026 2.157-89.914 1.725-129.927-3.407-9.994-6.813-13.326-10.218-6.661-40.877 6.661-30.656 49.972-102.189 56.633-112.408 6.662-10.219 28.57-10.219 28.57-10.219 6.665 3.406-3.449 64.771-10.211 68.126-6.758 3.359-40.808 68.126-40.808 68.126s.723 3.409 99.072 13.628Z" stroke="#000" stroke-width="5" stroke-miterlimit="10"/><path d="M420.066 522.96c-4.74.495-6.665-57.908-9.998-61.314l-3.328-3.406s-3.334-3.407-3.334 10.218v62.964c0 6.281 5.891 10.805 11.79 9.057 0 0 1.1-.339 1.536-.488 46.028 2.157 89.915 1.725 129.927-3.407 9.995-6.813 13.326-10.218 6.661-40.877-6.661-30.656-49.971-102.189-56.633-112.408-6.663-10.219-28.572-10.219-28.572-10.219-6.664 3.406.015 64.771 6.77 68.126 6.761 3.359 44.249 68.126 44.249 68.126s-.719 3.409-99.068 13.628Z" fill="#fff" stroke="#000" stroke-width="5" stroke-miterlimit="10"/><path d="M420.066 522.96c-4.74.495-6.665-57.908-9.998-61.314l-3.328-3.406s-3.334-3.407-3.334 10.218v62.964c0 6.281 5.891 10.805 11.79 9.057 0 0 1.1-.339 1.536-.488 46.028 2.157 89.915 1.725 129.927-3.407 9.995-6.813 13.326-10.218 6.661-40.877-6.661-30.656-49.971-102.189-56.633-112.408-6.663-10.219-28.572-10.219-28.572-10.219-6.664 3.406.015 64.771 6.77 68.126 6.761 3.359 44.249 68.126 44.249 68.126s-.719 3.409-99.068 13.628Z" stroke="#000" stroke-width="5" stroke-miterlimit="10"/><path d="M233.914 616.708s21.51 4.033 32.529-3.979Z" fill="#fff"/><path d="M233.914 616.708s21.51 4.033 32.529-3.979" stroke="#000" stroke-width="5" stroke-miterlimit="10"/><path d="M233.914 616.708s21.51 4.033 32.529-3.979" stroke="#000" stroke-width="5" stroke-miterlimit="10"/><path d="M566.092 616.708s-21.514 4.033-32.533-3.979Z" fill="#fff"/><path d="M566.092 616.708s-21.514 4.033-32.533-3.979" stroke="#000" stroke-width="5" stroke-miterlimit="10"/><path d="M566.092 616.708s-21.514 4.033-32.533-3.979" stroke="#000" stroke-width="5" stroke-miterlimit="10"/></svg>

<svg width="800" height="900" viewBox="0 0 800 900" fill="none" xmlns="http://www.w3.org/2000/svg">
<path d="M493.677 629.043C495.446 595.466 470.985 540.499 470.985 540.499C412.625 558.032 333.685 540.499 333.685 540.499C333.685 540.499 310.291 619.569 312.597 635.986" fill="white"/>
<path d="M493.677 629.043C495.446 595.466 470.985 540.499 470.985 540.499C412.625 558.032 333.685 540.499 333.685 540.499C333.685 540.499 310.291 619.569 312.597 635.986" stroke="black" stroke-width="5" stroke-miterlimit="10"/>
<path d="M493.677 629.043C495.446 595.466 470.985 540.499 470.985 540.499C412.625 558.032 333.685 540.499 333.685 540.499C333.685 540.499 310.291 619.569 312.597 635.986" stroke="black" stroke-width="5" stroke-miterlimit="10"/>
<path d="M472.334 553.585C427.1 565.967 380.68 566.532 332.641 551.063C339.109 494.726 330.906 440.531 330.906 440.531C343.501 403.843 338.734 373.083 338.734 373.083C338.734 373.083 351.738 368.349 368.484 355.269C385.231 342.152 380.84 297.977 380.84 297.977C380.84 297.977 381.929 298.143 402.353 298.143C422.776 298.143 423.627 297.977 423.627 297.977C423.627 297.977 419.439 342.152 436.186 355.269C452.968 368.349 468.08 373.083 468.08 373.083C468.08 373.083 461.206 403.843 473.764 440.531C473.763 440.53 465.323 496.358 472.334 553.585Z" fill="white" stroke="black" stroke-width="5" stroke-miterlimit="10"/>
<path d="M472.334 553.585C427.1 565.967 380.68 566.532 332.641 551.063C339.109 494.726 330.906 440.531 330.906 440.531C343.501 403.843 338.734 373.083 338.734 373.083C338.734 373.083 351.738 368.349 368.484 355.269C385.231 342.152 380.84 297.977 380.84 297.977C380.84 297.977 381.929 298.143 402.353 298.143C422.776 298.143 423.627 297.977 423.627 297.977C423.627 297.977 419.439 342.152 436.186 355.269C452.968 368.349 468.08 373.083 468.08 373.083C468.08 373.083 461.206 403.843 473.764 440.531C473.763 440.53 465.323 496.358 472.334 553.585Z" stroke="black" stroke-width="5" stroke-miterlimit="10"/>
<path d="M382.981 594.494C382.981 594.494 270.655 458.241 257.04 454.834C243.424 451.426 219.598 454.834 216.193 471.866C213.202 486.84 228.625 586.051 234.708 621.391C235.599 626.553 236.883 631.616 238.319 636.646C239.17 639.625 240.02 643.884 240.02 648.994C240.02 659.213 240.02 666.025 243.424 689.87C246.828 713.715 240.02 713.715 233.213 717.121C226.405 720.527 219.597 723.934 229.809 730.745C229.809 730.745 257.04 734.152 270.655 727.339C284.27 720.525 267.252 689.868 270.655 679.65C274.059 669.432 284.27 659.213 277.463 642.181C277.463 642.181 270.655 635.367 267.252 628.555C263.848 621.741 270.655 577.461 267.252 557.022L263.848 536.584C263.848 536.584 284.271 638.774 348.944 659.212C383.319 665.751 417.386 666.305 451.059 659.212C515.731 638.776 536.153 536.587 536.153 536.587L532.75 557.025C529.345 577.464 536.153 621.745 532.75 628.558C529.345 635.372 522.538 642.184 522.538 642.184C515.731 659.216 525.943 669.434 529.347 679.653C532.751 689.871 515.732 720.53 529.347 727.342C542.961 734.154 570.193 730.748 570.193 730.748C580.405 723.935 573.598 720.53 566.789 717.124C559.981 713.717 553.174 713.717 556.578 689.873C559.983 666.029 559.983 659.217 559.983 648.997C559.983 643.887 560.833 639.629 561.685 636.649C563.12 631.619 564.406 626.556 565.294 621.394C571.383 586.053 586.8 486.843 583.808 471.868C580.405 454.837 556.578 451.429 542.961 454.837C529.347 458.244 417.02 594.497 417.02 594.497" fill="white"/>
<path d="M382.981 594.494C382.981 594.494 270.655 458.241 257.04 454.834C243.424 451.426 219.598 454.834 216.193 471.866C213.202 486.84 228.625 586.051 234.708 621.391C235.599 626.553 236.883 631.616 238.319 636.646C239.17 639.625 240.02 643.884 240.02 648.994C240.02 659.213 240.02 666.025 243.424 689.87C246.828 713.715 240.02 713.715 233.213 717.121C226.405 720.527 219.597 723.934 229.809 730.745C229.809 730.745 257.04 734.152 270.655 727.339C284.27 720.525 267.252 689.868 270.655 679.65C274.059 669.432 284.27 659.213 277.463 642.181C277.463 642.181 270.655 635.367 267.252 628.555C263.848 621.741 270.655 577.461 267.252 557.022L263.848 536.584C263.848 536.584 284.271 638.774 348.944 659.212C383.319 665.751 417.386 666.305 451.059 659.212C515.731 638.776 536.153 536.587 536.153 536.587L532.75 557.025C529.345 577.464 536.153 621.745 532.75 628.558C529.345 635.372 522.538 642.184 522.538 642.184C515.731 659.216 525.943 669.434 529.347 679.653C532.751 689.871 515.732 720.53 529.347 727.342C542.961 734.154 570.193 730.748 570.193 730.748C580.405 723.935 573.598 720.53 566.789 717.124C559.981 713.717 553.174 713.717 556.578 689.873C559.983 666.029 559.983 659.217 559.983 648.997C559.983 643.887 560.833 639.629 561.685 636.649C563.12 631.619 564.406 626.556 565.294 621.394C571.383 586.053 586.8 486.843 583.808 471.868C580.405 454.837 556.578 451.429 542.961 454.837C529.347 458.244 417.02 594.497 417.02 594.497" stroke="black" stroke-width="5" stroke-miterlimit="10"/>
<path d="M382.981 594.494C382.981 594.494 270.655 458.241 257.04 454.834C243.424 451.426 219.598 454.834 216.193 471.866C213.202 486.84 228.625 586.051 234.708 621.391C235.599 626.553 236.883 631.616 238.319 636.646C239.17 639.625 240.02 643.884 240.02 648.994C240.02 659.213 240.02 666.025 243.424 689.87C246.828 713.715 240.02 713.715 233.213 717.121C226.405 720.527 219.597 723.934 229.809 730.745C229.809 730.745 257.04 734.152 270.655 727.339C284.27 720.525 267.252 689.868 270.655 679.65C274.059 669.432 284.27 659.213 277.463 642.181C277.463 642.181 270.655 635.367 267.252 628.555C263.848 621.741 270.655 577.461 267.252 557.022L263.848 536.584C263.848 536.584 284.271 638.774 348.944 659.212C383.319 665.751 417.386 666.305 451.059 659.212C515.731 638.776 536.153 536.587 536.153 536.587L532.75 557.025C529.345 577.464 536.153 621.745 532.75 628.558C529.345 635.372 522.538 642.184 522.538 642.184C515.731 659.216 525.943 669.434 529.347 679.653C532.751 689.871 515.732 720.53 529.347 727.342C542.961 734.154 570.193 730.748 570.193 730.748C580.405 723.935 573.598 720.53 566.789 717.124C559.981 713.717 553.174 713.717 556.578 689.873C559.983 666.029 559.983 659.217 559.983 648.997C559.983 643.887 560.833 639.629 561.685 636.649C563.12 631.619 564.406 626.556 565.294 621.394C571.383 586.053 586.8 486.843 583.808 471.868C580.405 454.837 556.578 451.429 542.961 454.837C529.347 458.244 417.02 594.497 417.02 594.497" stroke="black" stroke-width="5" stroke-miterlimit="10"/>
<path d="M365.059 206.592C340.502 257.54 379.269 318.731 401.575 319.027C423.881 319.32 464.25 259.17 441.04 207.593C426.41 175.083 380.539 174.478 365.059 206.592Z" fill="white" stroke="black" stroke-width="5" stroke-miterlimit="10"/>
<path d="M365.059 206.592C340.502 257.54 379.269 318.731 401.575 319.027C423.881 319.32 464.25 259.17 441.04 207.593C426.41 175.083 380.539 174.478 365.059 206.592Z" stroke="black" stroke-width="5" stroke-miterlimit="10"/>
<path d="M546.267 267.935C526.683 257.174 531.651 243.373 514.273 229.574C496.9 215.772 475.374 225.093 466.286 202.799C457.281 180.711 427.943 168.097 402.377 168.405V168.402C402.363 168.402 402.351 168.405 402.335 168.405C402.321 168.405 402.312 168.402 402.298 168.402V168.405C376.733 168.095 347.391 180.71 338.389 202.799C329.296 225.093 307.774 215.772 290.4 229.574C273.024 243.373 277.989 257.174 258.408 267.935C238.826 278.7 237.232 277.701 237.999 286.155C239.129 298.616 283.658 293.686 317.053 294.537C323.598 294.707 347.438 301.337 353.813 302.833C366.857 305.887 383.606 305.454 383.956 300.778C384.506 293.326 382.121 275.599 377.039 266.527C371.96 257.453 361.466 260.38 361.466 247.067C361.466 234.646 366.562 239.483 378.28 228.439C388.613 218.699 398.954 207.423 402.336 198.262C405.719 207.423 416.065 218.699 426.394 228.439C438.113 239.483 443.209 234.646 443.209 247.067C443.209 260.38 432.715 257.453 427.634 266.527C422.554 275.599 420.167 293.326 420.72 300.778C421.063 305.454 437.818 305.887 450.857 302.833C457.23 301.337 481.073 294.707 487.617 294.537C521.015 293.686 565.545 298.616 566.675 286.155C567.444 277.701 565.845 278.7 546.267 267.935Z" fill="#100200" stroke="black" stroke-width="5" stroke-miterlimit="10"/>
<path d="M353.926 365.209C353.926 365.209 372.108 392.599 402.596 392.599C433.088 392.599 451.271 365.209 451.271 365.209" fill="white"/>
<path d="M353.926 365.209C353.926 365.209 372.108 392.599 402.596 392.599C433.088 392.599 451.271 365.209 451.271 365.209" stroke="black" stroke-width="5" stroke-miterlimit="10"/>
<path d="M353.926 365.209C353.926 365.209 372.108 392.599 402.596 392.599C433.088 392.599 451.271 365.209 451.271 365.209" stroke="black" stroke-width="5" stroke-miterlimit="10"/>
<path d="M386.747 522.96C391.484 523.455 393.412 465.052 396.74 461.646L400.073 458.24C400.073 458.24 403.405 454.833 403.405 468.458V531.422C403.405 537.703 397.513 542.227 391.614 540.479C391.614 540.479 390.513 540.14 390.079 539.991C344.053 542.148 300.165 541.716 260.152 536.584C250.158 529.771 246.826 526.366 253.491 495.707C260.152 465.051 303.463 393.518 310.124 383.299C316.786 373.08 338.694 373.08 338.694 373.08C345.359 376.486 335.245 437.851 328.483 441.206C321.725 444.565 287.675 509.332 287.675 509.332C287.675 509.332 288.398 512.741 386.747 522.96Z" fill="white" stroke="black" stroke-width="5" stroke-miterlimit="10"/>
<path d="M386.747 522.96C391.484 523.455 393.412 465.052 396.74 461.646L400.073 458.24C400.073 458.24 403.405 454.833 403.405 468.458V531.422C403.405 537.703 397.513 542.227 391.614 540.479C391.614 540.479 390.513 540.14 390.079 539.991C344.053 542.148 300.165 541.716 260.152 536.584C250.158 529.771 246.826 526.366 253.491 495.707C260.152 465.051 303.463 393.518 310.124 383.299C316.786 373.08 338.694 373.08 338.694 373.08C345.359 376.486 335.245 437.851 328.483 441.206C321.725 444.565 287.675 509.332 287.675 509.332C287.675 509.332 288.398 512.741 386.747 522.96Z" stroke="black" stroke-width="5" stroke-miterlimit="10"/>
<path d="M420.066 522.96C415.326 523.455 413.401 465.052 410.068 461.646L406.74 458.24C406.74 458.24 403.406 454.833 403.406 468.458V531.422C403.406 537.703 409.297 542.227 415.196 540.479C415.196 540.479 416.296 540.14 416.732 539.991C462.76 542.148 506.647 541.716 546.659 536.584C556.654 529.771 559.985 526.366 553.32 495.707C546.659 465.051 503.349 393.518 496.687 383.299C490.024 373.08 468.115 373.08 468.115 373.08C461.451 376.486 468.13 437.851 474.885 441.206C481.646 444.565 519.134 509.332 519.134 509.332C519.134 509.332 518.415 512.741 420.066 522.96Z" fill="white" stroke="black" stroke-width="5" stroke-miterlimit="10"/>
<path d="M420.066 522.96C415.326 523.455 413.401 465.052 410.068 461.646L406.74 458.24C406.74 458.24 403.406 454.833 403.406 468.458V531.422C403.406 537.703 409.297 542.227 415.196 540.479C415.196 540.479 416.296 540.14 416.732 539.991C462.76 542.148 506.647 541.716 546.659 536.584C556.654 529.771 559.985 526.366 553.32 495.707C546.659 465.051 503.349 393.518 496.687 383.299C490.024 373.08 468.115 373.08 468.115 373.08C461.451 376.486 468.13 437.851 474.885 441.206C481.646 444.565 519.134 509.332 519.134 509.332C519.134 509.332 518.415 512.741 420.066 522.96Z" stroke="black" stroke-width="5" stroke-miterlimit="10"/>
<path d="M233.914 616.708C233.914 616.708 255.424 620.741 266.443 612.729Z" fill="white"/>
<path d="M233.914 616.708C233.914 616.708 255.424 620.741 266.443 612.729" stroke="black" stroke-width="5" stroke-miterlimit="10"/>
<path d="M233.914 616.708C233.914 616.708 255.424 620.741 266.443 612.729" stroke="black" stroke-width="5" stroke-miterlimit="10"/>
<path d="M566.092 616.708C566.092 616.708 544.578 620.741 533.559 612.729Z" fill="white"/>
<path d="M566.092 616.708C566.092 616.708 544.578 620.741 533.559 612.729" stroke="black" stroke-width="5" stroke-miterlimit="10"/>
<path d="M566.092 616.708C566.092 616.708 544.578 620.741 533.559 612.729" stroke="black" stroke-width="5" stroke-miterlimit="10"/>
</svg>
